!!!CDT:
!!!PTL: Sacre lodi
!!!PPP: Venice
!!!PPR: Amadino
!!!PDT: 1587
!!!PUB-format:
!!!RISM: G 480
!!!rime: 1637
!!!AGN: Madrigal
!!!SCT: Trm1637a
!!!SCA: Trm1637a
!!!original-voices: 5
!!!extant-voices: 5
!!!complete: Y
!!!final: G
!!!COM: Gastoldi, Giovanni Giacomo
!!!OTL: Anime sante e belle
**kern	**text	**kern	**text	**kern	**text	**kern	**text	**kern	**text
*part5	*part5	*part4	*part4	*part3	*part3	*part2	*part2	*part1	*part1
*staff5	*staff5	*staff4	*staff4	*staff3	*staff3	*staff2	*staff2	*staff1	*staff1
*I"Basso	*	*I"Tenore	*	*I"Alto	*	*I"Quinto	*	*I"Canto	*
*I'B	*	*I'T	*	*I'A	*	*I'V	*	*I'C	*
*oclefF4	*	*oclefC4	*	*oclefC3	*	*oclefC1	*	*oclefC1	*
*clefF4	*	*clefGv2	*	*clefGv2	*	*clefG2	*	*clefG2	*
*k[b-]	*	*k[b-]	*	*k[b-]	*	*k[b-]	*	*k[b-]	*
*F:	*	*F:	*	*F:	*	*F:	*	*F:	*
*omet(C|)	*	*omet(C|)	*	*omet(C|)	*	*omet(C|)	*	*omet(C|)	*
*M2/1	*	*M2/1	*	*M2/1	*	*M2/1	*	*M2/1	*
=1	=1	=1	=1	=1	=1	=1	=1	=1	=1
!	!	!	!	!	!	!	!	!LO:TX:a:t=A tutti i Santi.	!
0r	.	0r	.	2g	A-	4r	.	4r	.
.	.	.	.	.	.	4.b-y	A-	4.dd	A-
.	.	.	.	4g	-ni-	.	.	.	.
.	.	.	.	.	.	8a	-ni-	8cc	-ni-
.	.	.	.	4g	-me	4g	-me	4b-y	-me
.	.	.	.	[1f	san-	1a	san-	[1cc	san-
=2	=2	=2	=2	=2	=2	=2	=2	=2	=2
0r	.	0r	.	2f]	.	2a	-te e	2cc]	.
.	.	.	.	2d	-te e	2.b-y	bel-	2dd	-te e
.	.	.	.	1e-X	bel-	.	.	2.g	bel-
.	.	.	.	.	.	4a	.	.	.
.	.	.	.	.	.	[2g	.	.	.
.	.	.	.	.	.	.	.	4a	.
=3	=3	=3	=3	=3	=3	=3	=3	=3	=3
0r	.	0r	.	1d	-le,	2g]	.	2b-y	.
.	.	.	.	.	.	2f#X	-le,	2a	-le,
.	.	.	.	4r	.	4r	.	4r	.
.	.	.	.	4d	Che	4a	Che	4f#X	Che
.	.	.	.	4d	da-	4a	da	4f#X	da
.	.	.	.	4d	-gli af-	4bnX	gli af-	4f#X	gli af-
=4	=4	=4	=4	=4	=4	=4	=4	=4	=4
0r	.	0r	.	2c	-fan-	2cc	-fan-	2g	-fan-
.	.	.	.	2B-y	-ni hu-	2dd	-ni hu-	2b-y	-ni hu-
.	.	.	.	[1f	-ma-	2cc	-ma-	4a	-ma-
.	.	.	.	.	.	.	.	4g	.
.	.	.	.	.	.	[2a	-ni e	4fnXi	.
.	.	.	.	.	.	.	.	4e	.
=5	=5	=5	=5	=5	=5	=5	=5	=5	=5
0r	.	0r	.	2f]	.	2a]	.	4d	.
.	.	.	.	.	.	.	.	4c	.
.	.	.	.	2d	-ni e	2b-y	da'	2B-y	.
.	.	.	.	2e	da'	2cc	mar-	2A	-ni
.	.	.	.	2f	mar-	[2dd	-ti-	4r	.
.	.	.	.	.	.	.	.	4a	e
=6	=6	=6	=6	=6	=6	=6	=6	=6	=6
0r	.	0r	.	0g	-ti-	2dd]	.	2b-y	da'
.	.	.	.	.	.	2.cc	.	2cc	mar-
.	.	.	.	.	.	.	.	2.dd	-ti-
.	.	.	.	.	.	4b-y	.	.	.
.	.	.	.	.	.	[2b-y	.	.	.
.	.	.	.	.	.	.	.	8ccL	.
.	.	.	.	.	.	.	.	8b-yJ	.
=7	=7	=7	=7	=7	=7	=7	=7	=7	=7
0r	.	0r	.	1f	-ti	4b-]	.	1cc	.
.	.	.	.	.	.	8aL	.	.	.
.	.	.	.	.	.	8gJ	.	.	.
.	.	.	.	.	.	2a	.	.	.
.	.	.	.	4r	.	2b-y	-ri	2b-y	-ri
.	.	.	.	4g	Vo-	.	.	.	.
.	.	.	.	8gL	-la-	4r	.	4r	.
.	.	.	.	8f	.	.	.	.	.
.	.	.	.	8g	.	4b-y	Vo-	4g	Vo-
.	.	.	.	8aJ	.	.	.	.	.
=8	=8	=8	=8	=8	=8	=8	=8	=8	=8
0r	.	0r	.	2b-y	.	8b-yL	-la-	8gL	-la-
.	.	.	.	.	.	8a	.	8f	.
.	.	.	.	.	.	8b-y	.	8g	.
.	.	.	.	.	.	8ccJ	.	8aJ	.
.	.	.	.	2B-y	-ste a	2dd	.	2b-y	.
.	.	.	.	[1B-y	più	4dd	-ste,	4b-y	-ste,
.	.	.	.	.	.	4d	Vo-	4f	Vo-
.	.	.	.	.	.	8dL	-la-	8b-yL	-la-
.	.	.	.	.	.	8c	.	8a	.
.	.	.	.	.	.	8d	.	8b-y	.
.	.	.	.	.	.	8eJ	.	8ccJ	.
=9	=9	=9	=9	=9	=9	=9	=9	=9	=9
0r	.	0r	.	2B-]	.	4f	.	4dd	.
.	.	.	.	.	.	4f	-ste a	4dd	-ste a
.	.	.	.	2B-y	su-	4f	più	4dd	più
.	.	.	.	.	.	4g	su-	4dd	su-
.	.	.	.	2.f	-bli-	4a	-bli-	2cc	-bli-
.	.	.	.	.	.	4b-y	-mi ed	.	.
.	.	.	.	.	.	2cc	al-	2ff	-mi ed
.	.	.	.	4g	-mi ed	.	.	.	.
=10	=10	=10	=10	=10	=10	=10	=10	=10	=10
1r	.	1r	.	4a	al-	4cc#X	-ti	4ee	al-
.	.	.	.	4b-y	-ti	2dd	gi-	4dd	-ti
.	.	.	.	2a	gi-	.	.	2ee	gi-
.	.	.	.	.	.	4cc#X	.	.	.
4r	.	4r	.	1d	-ri,	[1dd	-ri,	1dd	-ri,
4G	Gra-	4B-y	Gra-	.	.	.	.	.	.
4G	-di-	4B-y	-di-	.	.	.	.	.	.
4G	-te i	4B-y	-te i	.	.	.	.	.	.
=11	=11	=11	=11	=11	=11	=11	=11	=11	=11
2F	no-	2A	no-	4r	.	1dd]	.	1r	.
.	.	.	.	4d	Gra-	.	.	.	.
2D	-stri	2B-y	-stri	4d	-di-	.	.	.	.
.	.	.	.	4d	-te i	.	.	.	.
1E-X	pre-	2G	pre-	4c	no-	1r	.	4r	.
.	.	.	.	4B-y	-stri	.	.	4g	Gra-
.	.	2G	-ghi	2c	pre-	.	.	4g	-di-
.	.	.	.	.	.	.	.	4g	-te i
=12	=12	=12	=12	=12	=12	=12	=12	=12	=12
4D	-ghi	4r	.	2d	-ghi	4r	.	2f	no-
4D	Su	4A	Su	.	.	4dd	Gra-	.	.
4.G	l'a-	2B-y	l'a-	4r	.	4dd	-di-	2d	-stri
.	.	.	.	4d	Su	4dd	-te i	.	.
8F	-li	.	.	.	.	.	.	.	.
4E-X	de	4G	-li	4.g	l'a-	4cc	no-	1e-X	pre-
4D	la	2B-y	de	.	.	4b-y	-stri	.	.
.	.	.	.	8f	-li	.	.	.	.
2C	fe-	.	.	4e-X	de	2cc	pre-	.	.
.	.	4A	la	4c	la	.	.	.	.
=13	=13	=13	=13	=13	=13	=13	=13	=13	=13
1BB-y	-de,	1B-y	fe-	2f	fe-	2dd	-ghi,	4d	-ghi,
.	.	.	.	.	.	.	.	4dd	Gra-
.	.	.	.	2f	-de,	2r	.	4dd	-di-
.	.	.	.	.	.	.	.	4dd	-te i
1r	.	4F	-de,	4r	.	4r	.	2cc	no-
.	.	4A	Su	4enXi	Su	4a	Gra-	.	.
.	.	4.d	l'a-	2f	l'a-	4a	-di-	2a	-stri
.	.	.	.	.	.	4a	-te i	.	.
.	.	8c	-li	.	.	.	.	.	.
=14	=14	=14	=14	=14	=14	=14	=14	=14	=14
1r	.	4B-y	de	4d	-li	4g	no-	1b-y	pre-
.	.	4A	la	2f	de	4f	-stri	.	.
.	.	2G	fe-	.	.	2g	pre-	.	.
.	.	.	.	4e	la	.	.	.	.
4r	.	2F	-de,	2f	fe-	2.a	.	4a	-ghi,
4D	Gra-	.	.	.	.	.	.	4f	Gra-
4D	-di	4r	.	2d	-de,	.	.	4f	-di-
4D	te i	4D	Su	.	.	4b-y	.	4f	-te i
=15	=15	=15	=15	=15	=15	=15	=15	=15	=15
2C	no-	4.A	l'a-	4r	.	1cc	-ghi,	4e	no-
.	.	.	.	4e	Su	.	.	4c	-stri
.	.	8G	-li	.	.	.	.	.	.
2AA	-stri	4F	de	4.a	l'a-	.	.	1f	pre-
.	.	4E	la	.	.	.	.	.	.
.	.	.	.	8g	-li	.	.	.	.
1BB-y	pre-	2D	fe-	4.f	de	4r	.	.	.
.	.	.	.	.	.	4dd	Gra-	.	.
.	.	.	.	8e	la	.	.	.	.
.	.	2D	-de,	2d	fe-	4dd	-di-	2g	.
.	.	.	.	.	.	4dd	-te i	.	.
=16	=16	=16	=16	=16	=16	=16	=16	=16	=16
4AA	-ghi	4r	.	2e	-de,	2cc	no-	4a	-ghi,
4AA	Su	4A	Gra-	.	.	.	.	4e	Su
4.D	l'a-	4A	-di-	4r	.	2a	-stri	2f	l'a-
.	.	4A	-te i	4A	Su	.	.	.	.
8C	-li	.	.	.	.	.	.	.	.
4BB-y	de	4G	no-	4.d	l'a-	1b-y	pre-	4d	-li
4AA	la	4F	-stri	.	.	.	.	2f	de
.	.	.	.	8c	-li	.	.	.	.
2GG	fe-	2G	pre-	4B-y	de	.	.	.	.
.	.	.	.	4G	la	.	.	4e	la
=17	=17	=17	=17	=17	=17	=17	=17	=17	=17
4FF	-de,	2A	-ghi	2c	fe-	4a	-ghi	2f	fe-
4F	Su	.	.	.	.	4a	Su	.	.
4.B-y	l'a-	4r	.	2B-y	-de,	4.dd	l'a-	4f	-de,
.	.	4d	Su	.	.	.	.	4g	Su
8A	-li	.	.	.	.	8cc	-li	.	.
4G	de	4.d	l'a-	4r	.	4b-y	de	4.dd	l'a-
4F#X	la	.	.	4d	Su	4a	la	.	.
.	.	8A	-li	.	.	.	.	8cc	-li
2G	fe-	4B-y	de	4.d	l'a-	2g	fe-	4b-y	de
.	.	4G	la	.	.	.	.	4b-y	la
.	.	.	.	8d	-li	.	.	.	.
=18	=18	=18	=18	=18	=18	=18	=18	=18	=18
2D	-de e	4A	fe-	4d	de	2f	-de e	4a	fe-
.	.	4D	-de	4d	la	.	.	4a	-de e
4C#X	de	4r	.	4A	fe-	4e	de	4a	de
4D	la	4A	e	4d	-de e	4d	la	4f	la
1AA	spe-	4A	de	4c	de	1a	spe-	4e	spe-
.	.	4F	la	4A	la	.	.	2d	.
.	.	2E	spe-	2A	spe-	.	.	.	.
.	.	.	.	.	.	.	.	4c#X	.
=19	=19	=19	=19	=19	=19	=19	=19	=19	=19
1D	-me;	2D	-me;	1A	-me;	1f#X	-me;	1d	-me;
.	.	4r	.	.	.	.	.	.	.
.	.	4d	E	.	.	.	.	.	.
4r	.	2.d	pur	4r	.	4r	.	4r	.
4G	E	.	.	4B-y	E	4g	E	4dd	E
[2G	pur	.	.	4.B-y	pur	[2g	pur	[2dd	pur
.	.	4d	co'	.	.	.	.	.	.
.	.	.	.	8c	.	.	.	.	.
=20	=20	=20	=20	=20	=20	=20	=20	=20	=20
4G]	.	2B-y	vo-	4d	.	4g]	.	4dd]	.
4G	co'	.	.	4d	co'	4g	co'	4b-y	co'
4F	vo-	4A	-stri in-	4f	vo-	4a	vo-	4cc	vo-
4D	-stri in-	2B-y	-sie-	4f	-stri in-	4fnXi	-stri in-	4dd	-stri in-
1C	-sie-	.	.	4.e-X	-sie-	1cc	-sie-	1ee-X	-sie-
.	.	8AL	.	.	.	.	.	.	.
.	.	8GJ	.	8d	.	.	.	.	.
.	.	2A	.	2c	.	.	.	.	.
=21	=21	=21	=21	=21	=21	=21	=21	=21	=21
0BB-y	-me	1B-y	-me	1d	-me	2f	-me	0dd	-me
.	.	.	.	.	.	4r	.	.	.
.	.	.	.	.	.	2f	La	.	.
.	.	4r	.	4r	.	.	.	.	.
.	.	2B-y	La	2d	La	4f	giu-	.	.
.	.	.	.	.	.	2f	-sti-	.	.
.	.	4B-y	giu-	4d	giu-	.	.	.	.
=22	=22	=22	=22	=22	=22	=22	=22	=22	=22
0r	.	2B-y	-sti-	2d	-sti-	1g	-tia	0r	.
.	.	1c	-tia	1e	-tia	.	.	.	.
.	.	.	.	.	.	2a	su-	.	.
.	.	2d	su-	2f	su-	[2b-y	-per-	.	.
=23	=23	=23	=23	=23	=23	=23	=23	=23	=23
1r	.	1e-X	-per-	1g	-per-	2b-]	.	1r	.
.	.	.	.	.	.	2cc	.	.	.
2r	.	2d	-na,	2a	-na,	[1dd	-na	2.f	La
[2BB-y	La	[2D	La	4r	.	.	.	.	.
.	.	.	.	[4d	La	.	.	4f	giu-
=24	=24	=24	=24	=24	=24	=24	=24	=24	=24
4BB-]	.	4D]	.	4d]	.	1dd]	.	2f	-sti-
4BB-y	giu-	4D	giu-	4d	giu-	.	.	.	.
2BB-y	-sti-	2D	-sti-	2d	-sti-	.	.	2g	-tia
2C	-tia	2EnXi	-tia	4c	-tia	1r	.	2a	su-
.	.	.	.	4c	su-	.	.	.	.
2D	su-	2F	su-	[2B-y	-per-	.	.	[2b-y	-per-
=25	=25	=25	=25	=25	=25	=25	=25	=25	=25
1E-X	-per-	1G	-per-	4B-]	.	1r	.	2b-]	.
.	.	.	.	4A	.	.	.	.	.
.	.	.	.	2.G	.	.	.	2cc	.
1D	-na	1A	-na	.	.	4r	.	2dd	-na
.	.	.	.	8F#XL	.	4dd	Ho-	.	.
.	.	.	.	8EJ	.	.	.	.	.
.	.	.	.	2F#i	.	4dd	-mai	4r	.
.	.	.	.	.	.	[4dd	fuor	4a	Ho-
=26	=26	=26	=26	=26	=26	=26	=26	=26	=26
4r	.	4r	.	4G	-na	8dd]	.	4b-y	-mai
.	.	.	.	.	.	8dd	di	.	.
4G	Ho-	4G	Ho-	4d	Ho-	4dd	suo	4.b-y	fuor
4G	-mai	4B-y	-mai	4d	-mai	8ddL	cor-	.	.
.	.	.	.	.	.	8cc	.	8b-y	di
4.G	fuor	4.B-y	fuor	4.d	fuor	8b-y	.	4b-y	suo
.	.	.	.	.	.	8aJ	.	.	.
.	.	.	.	.	.	4b-y	.	2g	cor-
8G	di	8B-y	di	8d	di	.	.	.	.
4G	suo	4B-y	suo	4d	suo	4b-y	-so,	.	.
8FL	cor-	8AL	cor-	8dL	cor-	2r	.	4a	-so,
8EnXi	.	8G	.	8c	.	.	.	.	.
8D	.	8F	.	8B-y	.	.	.	[4dd	fuor
8CJ	.	8EJ	.	8AJ	.	.	.	.	.
=27	=27	=27	=27	=27	=27	=27	=27	=27	=27
2BB-y	.	2F	.	2B-y	.	2r	.	8dd]	.
.	.	.	.	.	.	.	.	8dd	di
.	.	.	.	.	.	.	.	4dd	suo
2GG	-so	2G	-so	4B-y	-so,	4r	.	8ddL	cor-
.	.	.	.	.	.	.	.	8cc	.
.	.	.	.	4G	Ho-	4dd	Ho-	8b-y	.
.	.	.	.	.	.	.	.	8aJ	.
1r	.	1r	.	4g	-mai	4dd	-mai	2b-y	.
.	.	.	.	4.g	fuor-	4.dd	fuor	.	.
.	.	.	.	.	.	.	.	2b-y	-so
.	.	.	.	8g	-di	8dd	di	.	.
.	.	.	.	4g	suo	4dd	suo	.	.
=28	=28	=28	=28	=28	=28	=28	=28	=28	=28
2r	.	2r	.	8fL	cor-	8ddL	cor-	2r	.
.	.	.	.	8e	.	8cc	.	.	.
.	.	.	.	8d	.	8b-y	.	.	.
.	.	.	.	8cJ	.	8aJ	.	.	.
4r	.	4r	.	4B-y	.	2b-y	.	2f	a
4B-y	a	4d	a	4B-y	-so	.	.	.	.
2B-y	noi	2.d	noi	4r	.	1b-y	-so	2.f	noi
.	.	.	.	4B-y	a	.	.	.	.
2BB-y	si	.	.	4B-y	noi	.	.	.	.
.	.	4B-y	si	4F	si	.	.	4d	si
=29	=29	=29	=29	=29	=29	=29	=29	=29	=29
1C	pie-	2G	pie-	1c	pie-	1r	.	1e-X	pie-
.	.	2A	.	.	.	.	.	.	.
1BB-y	-ghi,	2B-y	-ghi,	2F	-ghi,	2r	.	1d	-ghi,
.	.	[2d	Pec-	2f	Pec-	2b-y	Pec-	.	.
=30	=30	=30	=30	=30	=30	=30	=30	=30	=30
2F	Pec-	4d]	.	2f	-ca-	2a	-ca-	0r	.
.	.	4c	.	.	.	.	.	.	.
2G	-ca-	4B-y	.	2.d	-to-	1b-y	-to-	.	.
.	.	4A	.	.	.	.	.	.	.
1E-X	-to-	2.G	-ca-	.	.	.	.	.	.
.	.	.	.	8cL	.	.	.	.	.
.	.	.	.	8B-yJ	.	.	.	.	.
.	.	.	.	2c	.	4a	.	.	.
.	.	4A	.	.	.	4g	.	.	.
=31	=31	=31	=31	=31	=31	=31	=31	=31	=31
0D	-ri,	2B-y	-to-	1d	-ri,	4f	.	2r	.
.	.	.	.	.	.	4d	.	.	.
.	.	4A	.	.	.	1g	.	1dd	e
.	.	4G	.	.	.	.	.	.	.
.	.	1A	.	2r	.	.	.	.	.
.	.	.	.	[2d	e	2f#X	-ri,	2dd	no'l
=32	=32	=32	=32	=32	=32	=32	=32	=32	=32
2r	.	2G	-ri,	2d]	.	2r	.	2.b-y	ce-
1G	e	1d	e	2d	no'l	1g	e	.	.
.	.	.	.	.	.	.	.	4cc	.
.	.	.	.	1B-y	ce-	.	.	2dd	.
2G	no'l	2d	no'l	.	.	2g	no'l	4cc	.
.	.	.	.	.	.	.	.	4b-y	.
=33	=33	=33	=33	=33	=33	=33	=33	=33	=33
*	*	*lig	*	*	*	*	*	*	*
2.F	ce-	1f	ce-	1A	-lo,	0a	ce-	4cc	.
.	.	.	.	.	.	.	.	4a	.
.	.	.	.	.	.	.	.	2.dd	.
4G	.	.	.	.	.	.	.	.	.
1A	.	1e	.	2r	.	.	.	.	.
*	*	*Xlig	*	*	*	*	*	*	*
.	.	.	.	.	.	.	.	8cc#XL	.
.	.	.	.	.	.	.	.	8bnXJ	.
.	.	.	.	4r	.	.	.	2cc#X	.
.	.	.	.	[4a	Voi	.	.	.	.
=34	=34	=34	=34	=34	=34	=34	=34	=34	=34
0D	-lo,	2d	-lo,	4a]	.	1f#X	-lo,	2dd	-lo,
.	.	.	.	4a	co-	.	.	.	.
.	.	4r	.	2a	-lon-	.	.	4r	.
.	.	2d	Voi	.	.	.	.	2a	Voi
.	.	.	.	2f	-ne	4r	.	.	.
.	.	4d	co-	.	.	2a	Voi	4a	co-
.	.	2d	-lon-	2d	del	.	.	2f	-lon-
.	.	.	.	.	.	4bnX	co-	.	.
=35	=35	=35	=35	=35	=35	=35	=35	=35	=35
0r	.	2c	-ne	2e-X	cie-	2cc	-lon-	4g	-ne
.	.	.	.	.	.	.	.	4a	del
.	.	2B-y	del	2d	-lo,	4dd	-ne	2.b-y	cie-
.	.	.	.	.	.	4dd	del	.	.
.	.	1f	cie-	2r	.	1cc	cie-	.	.
.	.	.	.	.	.	.	.	8aL	.
.	.	.	.	.	.	.	.	8gJ	.
.	.	.	.	[2f	An-	.	.	2a	.
=36	=36	=36	=36	=36	=36	=36	=36	=36	=36
2r	.	1B-y	-lo,	4f]	.	2dd	-lo,	2b-y	-lo,
.	.	.	.	4f	-z'i	.	.	.	.
2.B-y	An-	.	.	2.f	Cie-	2.b-y	An-	1dd	An-
.	.	2r	.	.	.	.	.	.	.
4B-y	-z'i	.	.	4f	-li	4b-y	-z'i	.	.
2B-y	Cie-	[2B-y	An-	2f	voi	2b-y	Cie-	2dd	-z'i
=37	=37	=37	=37	=37	=37	=37	=37	=37	=37
2E-X	-li	4B-]	.	1g	se-	4b-y	-li	1ee-X	Cie-
.	.	4B-y	-z'i	.	.	4b-y	voi	.	.
2E-i	voi	2G	Cie-	.	.	1cc	se-	.	.
[1F	se-	2A	-li	[1f	-te,	.	.	2dd	-li
.	.	2B-y	voi	.	.	[2b-y	.	2dd	voi
=38	=38	=38	=38	=38	=38	=38	=38	=38	=38
1F]	.	1c	se-	1f]	.	4b-]	.	1cc	se-
.	.	.	.	.	.	8aL	.	.	.
.	.	.	.	.	.	8gJ	.	.	.
.	.	.	.	.	.	2a	.	.	.
1BB-y	-te,	1B-y	-te,	4r	.	2b-y	-te,	2dd	-te,
.	.	.	.	4.f	Al-	.	.	.	.
.	.	.	.	.	.	4r	.	4r	.
.	.	.	.	8e	-me	.	.	.	.
.	.	.	.	4d	fe-	[4dd	Al-	[4b-y	Al-
=39	=39	=39	=39	=39	=39	=39	=39	=39	=39
0r	.	0r	.	8GL	-li-	8dd]	.	8b-]	.
.	.	.	.	8A	.	8cc	-me	8a	-me
.	.	.	.	8B-y	.	4b-y	fe-	4g	fe-
.	.	.	.	8cJ	.	.	.	.	.
.	.	.	.	2d	.	4a	-li-	4g	-li-
.	.	.	.	.	.	4a	-ci e	4f#X	-ci e
.	.	.	.	4G	-ci e	4.g	lie-	8gL	lie-
.	.	.	.	.	.	.	.	8a	.
.	.	.	.	2g	lie-	.	.	8b-y	.
.	.	.	.	.	.	16fL	.	8ccJ	.
.	.	.	.	.	.	16e	.	.	.
.	.	.	.	.	.	8d	.	[2dd	.
.	.	.	.	.	.	8e	.	.	.
.	.	.	.	8fL	.	8f	.	.	.
.	.	.	.	8eJ	.	8gJ	.	.	.
=40	=40	=40	=40	=40	=40	=40	=40	=40	=40
1r	.	1r	.	1d	.	4a	.	4dd]	.
.	.	.	.	.	.	2g	.	8ccL	.
.	.	.	.	.	.	.	.	8b-yJ	.
.	.	.	.	.	.	.	.	2a	.
.	.	.	.	.	.	4f#X	.	.	.
4r	.	4r	.	1G	-te,	1g	-te,	1g	-te,
2B-y	Che	2d	Che	.	.	.	.	.	.
4A	nar-	4c	nar-	.	.	.	.	.	.
=41	=41	=41	=41	=41	=41	=41	=41	=41	=41
2G	-ra-	2B-y	-ra-	1r	.	4r	.	1r	.
.	.	.	.	.	.	4d	la	.	.
4F	-te	4A	-te	.	.	4d	glo-	.	.
4E	di	4G	di	.	.	4e	-ria e	.	.
1D	Dio	1F	Dio,	4r	.	4.fnXi	ter-	4r	.
.	.	.	.	4d	la	.	.	2dd	Che
.	.	.	.	.	.	8g	.	.	.
.	.	.	.	4d	glo-	2a	.	.	.
.	.	.	.	4e	-ria e-	.	.	4cc	nar-
=42	=42	=42	=42	=42	=42	=42	=42	=42	=42
4r	.	1r	.	2.f	-ter-	1d	-na,	2b-y	-ra-
4D	la	.	.	.	.	.	.	.	.
4D	glo-	.	.	.	.	.	.	4a	-te
4E	-ria e-	.	.	4g	.	.	.	4g	di
4.F	-ter-	4r	.	2a	.	4r	.	4f	Dio
.	.	2f	Che	.	.	2dd	Che	4d	la
8G	.	.	.	.	.	.	.	.	.
2A	.	.	.	2a	-na,	.	.	4d	glo-
.	.	4e	nar-	.	.	4cc	nar-	4e	-ria e-
=43	=43	=43	=43	=43	=43	=43	=43	=43	=43
0D	-na,	2d	-ra-	0r	.	2b-y	-ra-	2.f	-ter-
.	.	4c	-te	.	.	4a	-te	.	.
.	.	4B-y	di	.	.	4g	di	4g	.
.	.	4A	Dio	.	.	4f	Dio	2a	.
.	.	4A	la	.	.	4f	la	.	.
.	.	4A	glo-	.	.	4f	glo-	2a	-na,
.	.	4A	-ria e-	.	.	4e	-ria e-	.	.
=44	=44	=44	=44	=44	=44	=44	=44	=44	=44
4r	.	2.B-y	-ter-	4r	.	2d	-ter-	4r	.
4GG	la	.	.	2d	Che	.	.	2b-y	Che
4GG	glo-	.	.	.	.	2d	-na,	.	.
4AA	-ria e-	4c	.	4c	nar-	.	.	4a	nar-
2.BB-y	-ter-	2d	.	2B-y	-ra-	4r	.	2g	-ra-
.	.	.	.	.	.	4d	la	.	.
.	.	2D	-na,	4A	-te	4d	glo-	4f	-te
4C	.	.	.	4G	di	4e	-ria e-	4e	di
=45	=45	=45	=45	=45	=45	=45	=45	=45	=45
1D	.	4r	.	4F	Dio,	4.f	-ter-	4d	Dio,
.	.	4A	la	2f	Che	.	.	2dd	<Che
.	.	.	.	.	.	8g	.	.	.
.	.	4A	glo-	.	.	4a	.	.	.
.	.	4A	-ria e-	4e	nar-	8gL	.	4cc	nar-
.	.	.	.	.	.	8fJ	.	.	.
2GG	-na,	4.B-y	-ter-	2d	-ra-	2g	.	2b-y	-ra-
.	.	8c	.	.	.	.	.	.	.
2r	.	2d	.	4d	-te	2f	-na,	4a	-te
.	.	.	.	4B-y	di	.	.	4g	di
=46	=46	=46	=46	=46	=46	=46	=46	=46	=46
2r	.	8DL	.	4.A	Di-	4r	.	4f	Dio>
.	.	8E	.	.	.	.	.	.	.
.	.	8F	.	.	.	2a	Che	4f	la
.	.	8GJ	.	8B-y	.	.	.	.	.
2AA	la	2A	-na,	2c	-o,	.	.	4e	glo-
.	.	.	.	.	.	4g	nar-	4d	-ria e-
2AA	glo-	1r	.	4r	.	2f	-ra-	4c#X	-ter-
.	.	.	.	2a	Che	.	.	4.d	.
2AA	-ria e-	.	.	.	.	4e	-te	.	.
.	.	.	.	.	.	.	.	8c#X	.
.	.	.	.	4g	nar-	4e	di	4c#i	.
=47	=47	=47	=47	=47	=47	=47	=47	=47	=47
2.BB-y	-ter-	4r	.	2f	-ra-	2d	Dio	4d	-na,
.	.	2d	Che	.	.	.	.	4d	la
.	.	.	.	4f	-te	2r	.	4d	glo-
4C	.	4c	nar-	4e	di	.	.	4e	-ria e-
[1D	.	2B-y	-ra-	4.d	Dio	4r	.	4.f	-ter-
.	.	.	.	.	.	4d	la	.	.
.	.	.	.	8e	.	.	.	8g	.
.	.	4A	-te	2f	.	4d	glo-	2a	.
.	.	4G	di	.	.	4e	-ria e-	.	.
=48	=48	=48	=48	=48	=48	=48	=48	=48	=48
0D]	.	4F	Dio	4r	.	2.f	-ter-	4a	-na,
.	.	4D	la	4a	la	.	.	4dd	la
.	.	4D	glo-	4a	glo-	.	.	2.dd	glo-
.	.	4E	-ria e-	4g	-ria e-	4g	.	.	.
.	.	4F	-ter-	8fL	-ter-	4a	.	.	.
.	.	.	.	8e	.	.	.	.	.
.	.	4G	.	8d	.	2g	.	4b-y	-ria e-
.	.	.	.	8cJ	.	.	.	.	.
.	.	2A	.	2d	.	.	.	2a	-ter-
.	.	.	.	.	.	4f#X	.	.	.
=49	=49	=49	=49	=49	=49	=49	=49	=49	=49
0GGl	-na.	0Gl	-na.	0dl	-na.	0gl	-na.	0bnXl	-na.
==	==	==	==	==	==	==	==	==	==
*-	*-	*-	*-	*-	*-	*-	*-	*-	*-
!!!system-decoration: [*]
!!!RDF**kern: i = editorial accidental
!!!RDF**kern: l = terminal long
!!!ENC: Emiliano Ricciardi
!!!END: 2019
!!!EED: Ricciardi, Emiliano
!!!EEV: 2019/05/05
!!!YEC: Copyright 2018 Emiliano Ricciardi, All Rights Reserved
!!!ONB: Translated from MusicXML on 2019/05/05
!!@@BEGIN:	VERSEDATA
!!@SOLERTI:	1637
!!@CATALOGNUM:	Trm1637
!!@LAST_MODIFIED: 2020/07/12
!!@TITLE:		Anime sante e belle
!!@GENRE:		madrigale
!!@MANUSRC:	Rv
!!@PRINTSRC:	78, 118
!!@@BEGIN:	VERSES
!!@ABOUTIT:	[Alle anime dei beati.]
!!@ABOUTEN:	[To the souls of the blessed.]
!!@EDITOR:	Maier, Bruno
!!@EDITION_TITLE: Opere
!!@EDITION_LOC:	Milan
!!@EDITION_PUB:	Rizzoli
!!@EDITION_DATE:  1963
!!@EDITION_VOL:	2
!!@EDITION_PAGE:  380
!!@TRANSLATOR:	Emiliano Ricciardi and Amyrose McCue Gill
!!@VERSE:
!!	Anime sante e belle,
!!	Che da gli affanni umani e da' martiri
!!	Volaste a' più sublimi ed alti giri,
!!	Gradite i nostri preghi
!!	Su l'ale de la fede e de la speme;
!!	E pur co' vostri insieme
!!	La giustizia superna
!!	Omai fuor di suo corso a noi si spieghi,
!!	Peccatori, e no 'l celo,
!!	Voi colonne del cielo,
!!	Anzi i cieli voi sete,
!!	Alme felici e liete,
!!	Che narrate di Dio la gloria eterna.
!!@TVERSE:
!!	Souls holy and beautiful,
!!	Which from human afflictions and from martyrdoms
!!	You flew to more sublime and higher spheres,
!!	May you appreciate our prayers
!!	On the wings of faith and of hope;
!!	And indeed with yours together
!!	May supernal justice,
!!	Now off its course, display itself to us,
!!	Sinners, and I do not hide it,
!!	You columns of heaven,
!!	Rather the Heavens you are,
!!	Souls happy and joyful,
!!	That narrate God’s eternal glory.
!!@@END:		VERSES
!!@OTHER_CRIT_ED:   None
!!@ATTRIBUTION_ABOUT:	Secure
!!		<br>
!!		This poem appears in the authoritative manuscript MA 165, Biblioteca Civica Angelo Mai, Bergamo (see Literary Sources).
!!@DATING:	In or before 1587
!!		<br>
!!		The earliest datable appearance of this poem is in a setting by Mantuan composer Gastoldi published in 1587 (see Musical Settings).
!!@DEDICATEE:
!!@COMMENTARY:
!!@@END:		VERSEDATA
!!@@BEGIN:	SETTING
!!@CATALOGNUM:	Trm1637a
!!@RIMETITLE:	Anime sante e belle
!!@SOLERTI:	1637
!!@COMPOSER:	Gastoldi, Giovanni Giacomo
!!@PRINCEPSTITLE:	Sacre lodi
!!@PRINCEPSLOC:	Venetia
!!@NORMLOC:	Venice
!!@NORMPUB:	Amadino
!!@NORMPUBSHORT:	Amadino
!!@PRINCEPSPUB:	Amadino
!!@PRINCEPSYEAR:	1587
!!@PRINCEPSRISM:	G 480
!!@REPRINTS:	
!!@OVOICES:	5
!!@EXTANTVOICES:	5
!!@PARTBOOKS:	
!!@EXTPARTBOOKS:	
!!@OCLEFS:	C1,C1,C3,C4,F4
!!@OMENSURATION:	Cut-C
!!@OKEYSIG:	b-
!!@FINAL:	G
!!@TIMPEDITOR:	Ricciardi, Emiliano
!!@NOTE:		
!!@@END:		SETTING
